app/assets/img/shared/nav-menu01.svg

<svg width="73" height="24" viewBox="0 0 73 24" fill="none" xmlns="http://www.w3.org/2000/svg">
<path d="M0 7.445H3.72C4.05 7.445 4.335 7.52 4.575 7.67C4.815 7.82 4.96 8.015 5.01 8.255L6.57 15.23C6.69 15.76 6.8 16.275 6.9 16.775C7 17.275 7.09 17.77 7.17 18.26C7.31 17.77 7.455 17.28 7.605 16.79C7.765 16.29 7.92 15.77 8.07 15.23L10.02 8.24C10.08 8.01 10.225 7.82 10.455 7.67C10.685 7.51 10.95 7.43 11.25 7.43H13.32C13.65 7.43 13.93 7.51 14.16 7.67C14.4 7.82 14.55 8.01 14.61 8.24L16.47 15.23C16.61 15.76 16.75 16.275 16.89 16.775C17.04 17.275 17.18 17.78 17.31 18.29C17.39 17.79 17.485 17.295 17.595 16.805C17.715 16.305 17.84 15.78 17.97 15.23L19.62 8.255C19.67 8.015 19.81 7.82 20.04 7.67C20.28 7.52 20.55 7.445 20.85 7.445H24.39L19.56 23H15.78C15.58 23 15.41 22.94 15.27 22.82C15.13 22.7 15.02 22.5 14.94 22.22L12.72 14.465C12.62 14.115 12.525 13.77 12.435 13.43C12.345 13.09 12.265 12.75 12.195 12.41C12.125 12.76 12.045 13.11 11.955 13.46C11.875 13.8 11.78 14.145 11.67 14.495L9.42 22.22C9.27 22.74 8.94 23 8.43 23H4.83L0 7.445ZM33.4343 7.205C34.6143 7.205 35.6893 7.39 36.6593 7.76C37.6293 8.13 38.4593 8.66 39.1493 9.35C39.8493 10.04 40.3893 10.88 40.7693 11.87C41.1593 12.85 41.3543 13.955 41.3543 15.185C41.3543 16.425 41.1593 17.545 40.7693 18.545C40.3893 19.535 39.8493 20.38 39.1493 21.08C38.4593 21.77 37.6293 22.305 36.6593 22.685C35.6893 23.055 34.6143 23.24 33.4343 23.24C32.2443 23.24 31.1593 23.055 30.1793 22.685C29.2093 22.305 28.3693 21.77 27.6593 21.08C26.9593 20.38 26.4143 19.535 26.0243 18.545C25.6443 17.545 25.4543 16.425 25.4543 15.185C25.4543 13.955 25.6443 12.85 26.0243 11.87C26.4143 10.88 26.9593 10.04 27.6593 9.35C28.3693 8.66 29.2093 8.13 30.1793 7.76C31.1593 7.39 32.2443 7.205 33.4343 7.205ZM33.4343 19.79C34.5043 19.79 35.2893 19.415 35.7893 18.665C36.2993 17.905 36.5543 16.755 36.5543 15.215C36.5543 13.675 36.2993 12.53 35.7893 11.78C35.2893 11.03 34.5043 10.655 33.4343 10.655C32.3343 10.655 31.5293 11.03 31.0193 11.78C30.5093 12.53 30.2543 13.675 30.2543 15.215C30.2543 16.755 30.5093 17.905 31.0193 18.665C31.5293 19.415 32.3343 19.79 33.4343 19.79ZM44.2066 23V7.445H46.9666C47.1966 7.445 47.3866 7.465 47.5366 7.505C47.6966 7.545 47.8266 7.61 47.9266 7.7C48.0366 7.78 48.1166 7.89 48.1666 8.03C48.2266 8.17 48.2766 8.34 48.3166 8.54L48.5716 9.995C49.1416 9.115 49.7816 8.42 50.4916 7.91C51.2016 7.4 51.9766 7.145 52.8166 7.145C53.5266 7.145 54.0966 7.315 54.5266 7.655L53.9266 11.075C53.8866 11.285 53.8066 11.435 53.6866 11.525C53.5666 11.605 53.4066 11.645 53.2066 11.645C53.0366 11.645 52.8366 11.625 52.6066 11.585C52.3766 11.535 52.0866 11.51 51.7366 11.51C50.5166 11.51 49.5566 12.16 48.8566 13.46V23H44.2066ZM61.5492 0.544999V13.13H62.2392C62.5292 13.13 62.7492 13.09 62.8992 13.01C63.0592 12.93 63.2092 12.785 63.3492 12.575L66.2892 8.195C66.4592 7.935 66.6592 7.745 66.8892 7.625C67.1292 7.505 67.4292 7.445 67.7892 7.445H72.0492L68.0292 12.98C67.8392 13.24 67.6292 13.47 67.3992 13.67C67.1792 13.87 66.9392 14.05 66.6792 14.21C67.1292 14.55 67.5192 15 67.8492 15.56L72.2292 23H68.0292C67.6792 23 67.3742 22.945 67.1142 22.835C66.8642 22.715 66.6592 22.51 66.4992 22.22L63.5592 16.715C63.4192 16.465 63.2742 16.305 63.1242 16.235C62.9742 16.155 62.7492 16.115 62.4492 16.115H61.5492V23H56.8992V0.544999H61.5492Z" fill="#121111"/>
</svg>

<svg fill="none" height="24" viewBox="0 0 73 24" width="73" xmlns="http://www.w3.org/2000/svg"><path d="m0 7.445h3.72c.33 0 .615.075.855.225s.385.345.435.585l1.56 6.975c.12.53.23 1.045.33 1.545s.19.995.27 1.485c.14-.49.285-.98.435-1.47.16-.5.315-1.02.465-1.56l1.95-6.99c.06-.23.205-.42.435-.57.23-.16.495-.24.795-.24h2.07c.33 0 .61.08.84.24.24.15.39.34.45.57l1.86 6.99c.14.53.28 1.045.42 1.545.15.5.29 1.005.42 1.515.08-.5.175-.995.285-1.485.12-.5.245-1.025.375-1.575l1.65-6.975c.05-.24.19-.435.42-.585.24-.15.51-.225.81-.225h3.54l-4.83 15.555h-3.78c-.2 0-.37-.06-.51-.18s-.25-.32-.33-.6l-2.22-7.755c-.1-.35-.195-.695-.285-1.035s-.17-.68-.24-1.02c-.07.35-.15.7-.24 1.05-.08.34-.175.685-.285 1.035l-2.25 7.725c-.15.52-.48.78-.99.78h-3.6zm33.4343-.24c1.18 0 2.255.185 3.225.555s1.8.9 2.49 1.59c.7.69 1.24 1.53 1.62 2.52.39.98.585 2.085.585 3.315 0 1.24-.195 2.36-.585 3.36-.38.99-.92 1.835-1.62 2.535-.69.69-1.52 1.225-2.49 1.605-.97.37-2.045.555-3.225.555-1.19 0-2.275-.185-3.255-.555-.97-.38-1.81-.915-2.52-1.605-.7-.7-1.245-1.545-1.635-2.535-.38-1-.57-2.12-.57-3.36 0-1.23.19-2.335.57-3.315.39-.99.935-1.83 1.635-2.52.71-.69 1.55-1.22 2.52-1.59.98-.37 2.065-.555 3.255-.555zm0 12.585c1.07 0 1.855-.375 2.355-1.125.51-.76.765-1.91.765-3.45s-.255-2.685-.765-3.435c-.5-.75-1.285-1.125-2.355-1.125-1.1 0-1.905.375-2.415 1.125s-.765 1.895-.765 3.435.255 2.69.765 3.45c.51.75 1.315 1.125 2.415 1.125zm10.7723 3.21v-15.555h2.76c.23 0 .42.02.57.06.16.04.29.105.39.195.11.08.19.19.24.33.06.14.11.31.15.51l.255 1.455c.57-.88 1.21-1.575 1.92-2.085s1.485-.765 2.325-.765c.71 0 1.28.17 1.71.51l-.6 3.42c-.04.21-.12.36-.24.45-.12.08-.28.12-.48.12-.17 0-.37-.02-.6-.06-.23-.05-.52-.075-.87-.075-1.22 0-2.18.65-2.88 1.95v9.54zm17.3426-22.455001v12.585001h.69c.29 0 .51-.04.66-.12.16-.08.31-.225.45-.435l2.94-4.38c.17-.26.37-.45.6-.57.24-.12.54-.18.9-.18h4.26l-4.02 5.535c-.19.26-.4.49-.63.69-.22.2-.46.38-.72.54.45.34.84.79 1.17 1.35l4.38 7.44h-4.2c-.35 0-.655-.055-.915-.165-.25-.12-.455-.325-.615-.615l-2.94-5.505c-.14-.25-.285-.41-.435-.48-.15-.08-.375-.12-.675-.12h-.9v6.885h-4.65v-22.455001z" fill="#121111"/></svg>
